icon-themes/sifr_svg/cmd/lc_color.svg

<svg viewBox="0 0 24 24" xmlns="http://www.w3.org/2000/svg"><g fill="#555753"><path d="m7 4v3h8c1.104569 0 2 .8954305 2 2v1h-8.5c-2.4852814 0-4.5 2.014719-4.5 4.5s2.0147186 4.5 4.5 4.5h11.5v-10c0-2.7614237-2.238576-5-5-5zm1.5 9h8.5v3h-8.5c-.8284271 0-1.5-.671573-1.5-1.5s.6715729-1.5 1.5-1.5z"/><path d="m0 21v3h24v-3z" opacity=".35"/></g></svg>

<svg viewBox="0 0 24 24" xmlns="http://www.w3.org/2000/svg">
  <path
     style="fill:#555753"
     d="M 7 4 L 7 7 L 15 7 C 16.104569 7 17 7.8954305 17 9 L 17 10 L 8.5 10 C 6.0147186 10 4 12.014719 4 14.5 C 4 16.985281 6.0147186 19 8.5 19 L 20 19 L 20 9 C 20 6.2385763 17.761424 4 15 4 L 7 4 z M 8.5 13 L 17 13 L 17 16 L 8.5 16 C 7.6715729 16 7 15.328427 7 14.5 C 7 13.671573 7.6715729 13 8.5 13 z "
     />
  <path
     style="opacity:0.35;fill:#555753"
     d="m 0,21 v 3 h 24 v -3 z"
     />
</svg>
